X: 152
M:6/8
L:1/8
Q:160
K:A
|: e|efe B2 c|dec B2 e|efe B2 c|dec B2:|
|:A|ABA G2 F|BGE A2 A ABA G2 A|BGE A2 :|
|: e3 d3|e3 d3|e2 f e2 d|c B2 A2 z:|

